symbols/web/today/materialsymbolsrounded/today_wght500grad200fill1_48px.svg

<svg xmlns="http://www.w3.org/2000/svg" height="48" width="48"><path d="M17.7 32.95q-2.15 0-3.6-1.475Q12.65 30 12.65 27.9t1.475-3.575Q15.6 22.85 17.7 22.85t3.55 1.475Q22.7 25.8 22.7 27.9t-1.45 3.575Q19.8 32.95 17.7 32.95ZM9 44.85q-1.55 0-2.7-1.175Q5.15 42.5 5.15 40.95v-31q0-1.5 1.15-2.675Q7.45 6.1 9 6.1h2.6V5.05q0-.75.575-1.325t1.375-.575q.8 0 1.375.575T15.5 5.05V6.1h17V5.05q0-.75.575-1.325t1.375-.575q.8 0 1.375.575T36.4 5.05V6.1H39q1.55 0 2.7 1.175 1.15 1.175 1.15 2.675v31q0 1.55-1.15 2.725T39 44.85Zm0-3.9h30v-21.8H9v21.8Z"/></svg>

<svg xmlns="http://www.w3.org/2000/svg" height="48" width="48"><path d="M17.7 32.95Q15.55 32.95 14.1 31.475Q12.65 30 12.65 27.9Q12.65 25.8 14.125 24.325Q15.6 22.85 17.7 22.85Q19.8 22.85 21.25 24.325Q22.7 25.8 22.7 27.9Q22.7 30 21.25 31.475Q19.8 32.95 17.7 32.95ZM9 44.85Q7.45 44.85 6.3 43.675Q5.15 42.5 5.15 40.95V9.95Q5.15 8.45 6.3 7.275Q7.45 6.1 9 6.1H11.6V5.05Q11.6 4.3 12.175 3.725Q12.75 3.15 13.55 3.15Q14.35 3.15 14.925 3.725Q15.5 4.3 15.5 5.05V6.1H32.5V5.05Q32.5 4.3 33.075 3.725Q33.65 3.15 34.45 3.15Q35.25 3.15 35.825 3.725Q36.4 4.3 36.4 5.05V6.1H39Q40.55 6.1 41.7 7.275Q42.85 8.45 42.85 9.95V40.95Q42.85 42.5 41.7 43.675Q40.55 44.85 39 44.85ZM9 40.95H39Q39 40.95 39 40.95Q39 40.95 39 40.95V19.15H9V40.95Q9 40.95 9 40.95Q9 40.95 9 40.95Z"/></svg>
